X:257
%%etbk:tnset id:78,pos:2,rep:3x,ant:
%%etbk:wsite http://www.thesession.org/tunes/display/6
%%etbk:pldat 2016-09-07T15:56,2016-04-11T18:20,2015-11-29T15:25,2015-07-17T11:28,2015-07-07T11:03,2015-03-28T16:04,2014-04-27T12:54,2013-10-08T17:22,2013-10-05T16:13,2013-10-01T18:59,2013-09-27T17:43,2013-05-06T18:09,2013-05-01T17:39
T: This Is My Love, Do You Like Her?
Z: Piano Box Version by Martin Fleischmann
H: Created 2013-02-19 /  Last Modified 2015-07-07
M: 6/8
L: 1/8
R: jig
K: Emin
|:"em"!3!E!1!B,E !3!E!2!D!1!B,|"G"!5!G2!2!G !2!GAB |"D"!3!A!2!A!3!A !2!ABA | !5!d3 !4!d2!5!e |
"G"!4!d2!3!B !1!GA!3!B | "D"!1!A2!3!F !1!DEF | !4!G2E !3!FED | "em"!2!E3 E3:|
|:"em"!4!eee !4!e!3!d!2!B | "D"!3!ddd !3!def | "em"!4!e2e !4!e!3!d!2!B | "D"!3!d3 d2!4!e |
"G"!3!d2!2!B !1!GA!3!B | "D"!1!A2!3!F !1!DEF | !4!G2E !3!FED | "em"!2!E3 E3:|


